images/icons/product-hunt.svg

<svg fill="none" height="24" viewBox="0 0 24 24" width="24" xmlns="http://www.w3.org/2000/svg" xmlns:xlink="http://www.w3.org/1999/xlink"><clipPath id="a"><path d="m0 0h24v24h-24z"/></clipPath><g clip-path="url(#a)"><path d="m24.0032 12c0 6.6298-5.3702 12-12 12-6.62976 0-12.00088066-5.3693-12.00088066-12 0-6.63071 5.37020066-12 11.99998066-12 6.6298 0 12 5.3702 12 12" fill="#ff6154"/><path d="m13.6028 12h-3.4003v-3.59048h3.4003c.99 0 1.8008.80988 1.8008 1.80078 0 .9908-.8099 1.8007-1.8008 1.8007zm0-5.98901h-5.80068v12.00001h2.40038v-3.5996h3.4003c2.32 0 4.2002-1.8803 4.2002-4.2002 0-2.31996-1.8802-4.20021-4.2002-4.20021z" fill="#fff"/></g></svg>

<svg width="24" height="24" viewBox="0 0 24 24" fill="none" xmlns="http://www.w3.org/2000/svg">
<g clip-path="url(#clip0_324_147)">
<path d="M24.0032 12C24.0032 18.6298 18.633 24 12.0032 24C5.37344 24 0.00231934 18.6307 0.00231934 12C0.00231934 5.36929 5.37252 0 12.0023 0C18.6321 0 24.0023 5.3702 24.0023 12" fill="#FF6154"/>
<path d="M13.6028 12H10.2025V8.40952H13.6028C14.5928 8.40952 15.4036 9.2194 15.4036 10.2103C15.4036 11.2011 14.5937 12.011 13.6028 12.011V12ZM13.6028 6.01099H7.80212V18.011H10.2025V14.4114H13.6028C15.9228 14.4114 17.803 12.5311 17.803 10.2112C17.803 7.89124 15.9228 6.01099 13.6028 6.01099Z" fill="white"/>
</g>
<defs>
<clipPath id="clip0_324_147">
<rect width="24" height="24" fill="white"/>
</clipPath>
</defs>
</svg>
